X:33
T:Lle Digon Ddiddig yw Caerfyrddin
M:2/4
L:1/8
Q:300
C:Ceri Rhys Matthews
R:Plin
K:G
ED EF | GA G2 | ED EF | E2 D2 :|| ED EF | GA G2 | B2 AG | FE
FG | A2 GF | ED EF | G2 FG | A4 | BA GF | G2 E2 ||
